X:1
T:Worthy the Lamb
T:George Crawford Hugg
T:Worthy the Lamb
T:Public Domain
T:Public Domain
T:Public Domain
C:George Crawford Hugg
Z:Public Domain
%%score ( 1 2 ) ( 3 4 )
L:1/8
M:4/4
K:Eb
V:1 treble 
V:2 treble 
V:3 bass 
V:4 bass 
V:1
 [B,E][B,E][CE][CE] [B,E]2 [EG]2 | [GB][GB][Ac][Ac] [GB]4 | [Ge][Ge][Ae][Ae] [Ge]2 [GB]2 | %3
w: 1.~“Wor- thy is the Lamb,” the|hosts of Heav- en sing,|As be- fore the throne they|
w: 2.~Wor- thy is the Lamb, Who|shed His pre- cious blood|To re- store a world to|
w: 3.~Wor- thy is the Lamb, the|bleed- ing sac- ri- fice|Who for Ad- am’s race paid|
w: 4.~“Wor- thy is the Lamb,” let|men and an- gels sing,|“Wor- thy is the Lamb,” let|
 GGFE [DB]4 | [B,E][B,E][CE][CE] [B,E]2 [EG]2 | [GB][GB][Ac][Ac] [GB]4 | %6
w: make His prais- es ring;|Lamb the book to o- pen|wide, Wor- thy is the|
w: hap- pi- ness and God;|pi- ty and no arm could|save,” Je- sus for our|
w: such a fear- ful price;|Lamb, the Pas- chal Lamb of|God, For the world re-|
w: hal- le- lu- jahs ring;|past, up- on the gold- en|shore, “Wor- thy is the|
 [Ge][Ge][Ae][Ae] [Ge]2 [GB]2 | [EG][EG][DF][DF] E4 ||"^Refrain" E3 [EF] [EG][GB] [GB]2 | %9
w: Lamb who once was cru- ci-|fied.” * * * *||
w: ran- som, Him- self free- ly|gave. * * * *||
w: ceived “Re- demp- tion thro’ His|blood.” * * * *||
w: Lamb,” we’ll shout for- ev- er-|more. * * * *||
 [Ac]3 [Bd] [Ac][GB] [GB]2 | [Ge]3 [GB] [Bd][Ac][GB][FA] | [EG]2 (FE) [DB][DB] z2 | %12
w: |||
w: |||
w: |||
w: |||
 E3 [EF] [EG][GB] [GB]2 | [Ac]3 [Bd] [Ac][GB] [GB]2 | [Ge]3 [GB] [Bd][Ac][GB][FA] | %15
w: |||
w: |||
w: |||
w: |||
 [EG]2 [DF]2 EE z2 |] %16
w: |
w: |
w: |
w: |
V:2
 x8 | x8 | x8 | GGFE x4 | x8 | x8 | x8 | x4 E4 || E3 x5 | x8 | x8 | x2 C2 x4 | E3 x5 | x8 | x8 | %15
w: |||“Wor- thy is the||||||||||||
w: |||“When no eye could||||||||||||
w: |||Wor- thy is the||||||||||||
w: |||And when life is||||||||||||
 x4 EE x2 |] %16
w: |
w: |
w: |
w: |
V:3
 [E,G,][E,G,][E,A,][E,A,] [E,G,]2 [E,B,]2 | [E,E][E,E][E,E][E,E] [E,E]4 | %2
w: ~ ~ ~ ~ ~ ~|~ ~ ~ ~ ~|
 [E,B,][E,B,][E,C][E,C] [E,B,]2 [E,E]2 | G,G,F,F, (B,2 A,2) | %4
w: ~ ~ ~ ~ ~ ~|~ ~ ~ ~ ~ *|
 [E,G,][E,G,][E,A,][E,A,] [E,G,]2 [E,B,]2 | [E,E][E,E][E,E][E,E] [E,E]4 | %6
w: ~ ~ ~ ~ ~ ~|~ ~ ~ ~ ~|
 [E,B,][E,B,][E,C][E,C] [E,B,]2 [E,E]2 | B,B,[B,,A,][B,,A,] [E,G,]4 || %8
w: ~ ~ ~ ~ ~ ~|Oh, this bleed- ing Lamb,|
 [E,G,]3 [E,A,] [E,B,][E,E] [E,E]2 | [A,E]3 [A,E] [A,E][E,E] [E,E]2 | %10
w: bleed- ing Lamb, Oh, this|dy- ing Lamb, He was|
 [E,B,]3 [E,E] [A,E][A,,E][B,,E][D,B,] | [E,B,]2 [F,=A,]2 [B,,F,][B,,F,] z2 | %12
w: found wor- thy; Oh, this bleed-|ing Lamb, oh, this|
 [E,G,]3 [E,A,] [E,B,][E,E] [E,E]2 | [A,E]3 [A,E] [A,E][E,E] [E,E]2 | %14
w: bleed- ing Lamb, Oh, this|dy- ing Lamb, He was|
 [E,B,]3 [E,E] [A,E][A,E][E,_D][F,C] | B,2 (B,A,) [E,G,][E,G,] z2 |] %16
w: found wor- thy. * * *||
V:4
 x8 | x8 | x8 | G,G,F,F, B,,4 | x8 | x8 | x8 | B,B, x6 || x8 | x8 | x8 | x8 | x8 | x8 | x8 | %15
w: |||~ ~ ~ ~ ~||||oh, this||||||||
 B,2 B,,2 x4 |] %16
w: |

